src/images/mediaLogos/lightTheme/Zapmap.svg

<svg width="97" height="30" viewBox="0 0 97 30" fill="none" xmlns="http://www.w3.org/2000/svg">
<path d="M41.9912 21.4466C41.8904 21.3066 41.8148 21.1869 41.7308 21.0777C41.1408 20.3035 40.5563 19.528 39.9551 18.758C39.0395 17.5926 38.1163 16.4328 37.557 15.0385C36.823 13.1636 36.7791 11.089 37.4331 9.18475C38.0891 7.3382 39.3997 5.79647 41.1166 4.85174C42.8334 3.90701 44.8372 3.62493 46.7481 4.05897C46.8741 4.08767 46.9336 4.05477 47.0043 3.95678C47.8471 2.79625 48.6924 1.63782 49.5403 0.481495C49.5746 0.435298 49.6103 0.3912 49.6466 0.345703L49.6844 0.366702C49.0244 1.67352 48.3636 2.98034 47.6882 4.31585C47.8128 4.36975 47.9262 4.42085 48.0381 4.46844C49.3849 5.01814 50.5538 5.92885 51.4161 7.10028C52.3227 8.29937 52.8622 9.73554 52.9693 11.2349C53.0869 12.7629 52.8342 14.2321 52.1511 15.6173C51.6338 16.6673 50.9374 17.5926 50.2115 18.4991C49.0853 19.906 47.9584 21.3122 47.0925 22.9025C46.3786 24.202 45.8298 25.5855 45.4588 27.021C45.309 27.6076 45.1879 28.2018 45.0535 28.7926C45.0387 28.8794 45.0152 28.9645 44.9835 29.0467C44.5447 26.678 43.8006 24.427 42.5337 22.3166L39.0339 27.189L38.9982 27.1687C39.988 25.2683 40.9784 23.3686 41.9898 21.4291L42.5449 22.2809L50.1093 11.7445H43.9147L47.6651 4.32495C47.4159 4.25496 47.1961 4.18146 46.9721 4.13246C46.9287 4.12336 46.8531 4.19196 46.816 4.24236C46.3891 4.81865 45.9649 5.39682 45.5435 5.97685L42.6436 9.9449L40.7579 12.5305C40.4313 12.9776 40.1046 13.4251 39.778 13.873C39.7486 13.9136 39.7276 13.9598 39.6933 14.0186H45.8599L41.9912 21.4466Z" fill="#737373"/>
<path d="M56.5449 21.1237C56.5694 20.6744 56.5918 20.2334 56.6149 19.7938C56.6905 18.4872 56.7673 17.1785 56.8452 15.8678C56.9465 14.1459 57.048 12.424 57.1497 10.7021C57.1784 10.2121 57.2015 9.72215 57.2323 9.23638C57.2447 9.18315 57.2652 9.13215 57.2932 9.08519C57.3434 9.10843 57.3905 9.13808 57.4332 9.17338C58.1415 9.96387 58.8473 10.7558 59.5505 11.549C60.2869 12.3759 61.0246 13.2019 61.7638 14.0269C62.1551 14.4657 62.5442 14.9074 62.9348 15.3477C62.9768 15.3946 63.0223 15.4387 63.0804 15.5003C63.2505 15.3099 63.4143 15.1314 63.5704 14.9494C65.023 13.2933 66.475 11.6368 67.9262 9.97973C68.1642 9.70815 68.4015 9.43587 68.6423 9.16638C68.6794 9.13284 68.7202 9.10372 68.7641 9.07959C68.7929 9.1251 68.8141 9.17498 68.827 9.22728C68.8737 9.93657 68.918 10.6461 68.96 11.3558C69.0646 13.1412 69.1677 14.927 69.2694 16.7133C69.3511 18.1328 69.4323 19.5523 69.513 20.9718C69.513 21.0173 69.513 21.0635 69.513 21.1209H66.401C66.3086 19.4613 66.2169 17.8073 66.121 16.1036C65.9691 16.2737 65.8452 16.4067 65.7269 16.5446C64.8931 17.5115 64.0599 18.4784 63.2274 19.4452C63.1105 19.5817 63.0622 19.5761 62.9236 19.4207L60.0713 16.2275C60.0335 16.1855 60.0013 16.1379 59.9691 16.0924L59.9313 16.1169C59.838 17.7828 59.7461 19.4515 59.6555 21.123L56.5449 21.1237Z" fill="#3A3A3A"/>
<path d="M27.271 21.1231H24.0918V9.28614C24.1352 9.28194 24.18 9.27425 24.2241 9.27425C25.7689 9.27425 27.3144 9.25815 28.8592 9.28545C30.0169 9.30574 31.0956 9.62562 32.0013 10.3788C33.0652 11.2635 33.5202 12.4422 33.5629 13.7981C33.5991 14.6055 33.4306 15.409 33.0729 16.1338C32.6047 17.069 31.8732 17.7227 30.9164 18.1329C30.1975 18.4416 29.4416 18.5529 28.666 18.5676C28.2698 18.5739 27.8737 18.5676 27.4761 18.5676H27.2731L27.271 21.1231ZM27.2766 11.9957V15.9091C27.8772 15.8776 28.4665 15.8916 29.0461 15.8041C29.7355 15.7005 30.1702 15.2512 30.2962 14.5617C30.356 14.2292 30.3694 13.89 30.3361 13.5538C30.2437 12.6221 29.7355 12.0972 28.8074 12.0048C28.3069 11.9544 27.7967 11.9957 27.2766 11.9957Z" fill="#3A3A3A"/>
<path d="M83.2295 9.27751C83.2715 9.27751 83.2995 9.27331 83.3282 9.27331C84.8849 9.27331 86.4423 9.25931 87.9983 9.28521C89.0685 9.30271 90.0723 9.59039 90.9465 10.2336C91.7371 10.8082 92.2955 11.6471 92.5207 12.5981C92.8161 13.7712 92.7538 14.9227 92.2449 16.0279C91.7746 17.0512 90.985 17.7456 89.9512 18.1669C89.2603 18.4469 88.538 18.5526 87.7988 18.5645C87.3963 18.5708 86.9939 18.5645 86.5914 18.5645C86.5291 18.5645 86.4668 18.5701 86.3898 18.5736V21.1152H83.2295V9.27751ZM86.3968 15.8816C87.0121 15.8543 87.6182 15.9439 88.2167 15.8039C88.9019 15.6436 89.3044 15.2096 89.4402 14.5237C89.5217 14.1167 89.5181 13.6973 89.4297 13.2918C89.2897 12.6366 88.8949 12.2152 88.2461 12.0514C87.6392 11.8988 87.0191 11.9919 86.3968 11.966V15.8816Z" fill="#3A3A3A"/>
<path d="M5.93261 11.9501H1.60898V9.27347H10.6748C10.7098 9.27347 10.7448 9.27347 10.7798 9.27347C10.9198 9.26647 10.9471 9.33017 10.8827 9.44356C10.7532 9.67175 10.6216 9.89783 10.4893 10.1246L7.72799 14.8661L5.71422 18.3239C5.69742 18.3533 5.68272 18.3841 5.65192 18.4429H10.4242V21.1237C10.3633 21.1237 10.3024 21.1314 10.2408 21.1314H0.864927C0.629042 21.1314 0.612943 21.1076 0.735435 20.8969C1.50772 19.567 2.2814 18.2371 3.05649 16.9072L5.83461 12.1349C5.86331 12.0894 5.88781 12.0383 5.93261 11.9501Z" fill="#3A3A3A"/>
<path d="M22.9827 21.1321H22.294C21.4946 21.1321 20.696 21.1279 19.8973 21.1363C19.8385 21.1443 19.7787 21.1304 19.7294 21.0974C19.68 21.0645 19.6444 21.0146 19.6292 20.9571C19.5291 20.7094 19.4157 20.4672 19.2961 20.2264C19.2798 20.1995 19.2577 20.1766 19.2314 20.1594C19.2051 20.1422 19.1753 20.1311 19.1442 20.127C17.7331 20.1223 16.3217 20.1223 14.9101 20.127C14.8791 20.1317 14.8495 20.1434 14.8238 20.1614C14.7981 20.1794 14.7768 20.2031 14.7617 20.2306C14.6413 20.4889 14.5385 20.7556 14.4181 21.0145C14.4044 21.0424 14.3848 21.0669 14.3606 21.0862C14.3364 21.1056 14.3082 21.1194 14.2781 21.1265C13.2925 21.1328 12.307 21.1265 11.3215 21.1265C11.311 21.1265 11.3012 21.1188 11.2725 21.1069C11.4013 20.834 11.5272 20.5617 11.6574 20.2908C12.4125 18.7159 13.1679 17.1408 13.9239 15.5654C14.9164 13.4902 15.9069 11.4137 16.8952 9.33578C16.9276 9.26102 16.965 9.18852 17.0072 9.11879C17.0429 9.0663 17.0912 9.0019 17.1472 8.9893C17.178 8.9816 17.2459 9.0593 17.2718 9.10969C17.423 9.41137 17.5672 9.71656 17.7121 10.0196C18.1974 11.0402 18.6822 12.0607 19.1666 13.0812C19.7195 14.2432 20.2737 15.4049 20.829 16.5663C21.2433 17.4329 21.6577 18.2996 22.0721 19.1667C22.3553 19.7602 22.6376 20.3545 22.919 20.9494C22.9351 21.0033 22.9512 21.0523 22.9827 21.1321ZM15.8243 17.7296H18.1971C17.7946 16.8197 17.402 15.9357 16.9932 15.0124C16.5991 15.9364 16.2162 16.826 15.8243 17.7296Z" fill="#3A3A3A"/>
<path d="M82.1101 21.1323H81.4584C80.6416 21.1323 79.8254 21.1323 79.0086 21.1358C78.9551 21.1432 78.9007 21.1308 78.8557 21.1011C78.8106 21.0713 78.7779 21.0262 78.7636 20.9741C78.6614 20.7208 78.548 20.4716 78.4269 20.2259C78.4105 20.1991 78.3883 20.1763 78.3619 20.1592C78.3355 20.1421 78.3055 20.1312 78.2743 20.1272C76.8637 20.1225 75.4528 20.1225 74.0417 20.1272C74.0086 20.1334 73.9773 20.147 73.9501 20.167C73.923 20.187 73.9007 20.2129 73.8849 20.2427C73.7631 20.5003 73.6602 20.767 73.5391 21.0252C73.5235 21.0522 73.5021 21.0754 73.4765 21.0931C73.4508 21.1107 73.4215 21.1225 73.3907 21.1274C72.4227 21.133 71.4554 21.1316 70.4873 21.1274C70.4575 21.1248 70.4278 21.1203 70.3984 21.1141C70.4418 21.014 70.4768 20.9237 70.5181 20.8342L72.5403 16.6127C73.2585 15.1167 73.9764 13.6209 74.6941 12.1253C75.1724 11.1281 75.65 10.1304 76.1269 9.13229C76.1622 9.07642 76.204 9.02496 76.2515 8.979C76.3026 9.0273 76.3719 9.0672 76.4006 9.12669C76.8128 9.98134 77.2195 10.8388 77.6276 11.6948C78.3803 13.2711 79.133 14.8474 79.8856 16.4237C80.6019 17.9268 81.3175 19.43 82.0324 20.9335C82.059 20.9979 82.0786 21.0553 82.1101 21.1323ZM77.3322 17.7376C76.9318 16.8339 76.5384 15.9464 76.1248 15.014C75.7237 15.9464 75.3415 16.8339 74.9538 17.7376H77.3322Z" fill="#3A3A3A"/>
<path d="M96.4875 7.76157C96.5484 8.8206 95.6083 9.84814 94.4254 9.84254C93.8733 9.84254 93.3438 9.62322 92.9535 9.23283C92.5631 8.84244 92.3438 8.31296 92.3438 7.76087C92.3438 7.20878 92.5631 6.6793 92.9535 6.28891C93.3438 5.89852 93.8733 5.6792 94.4254 5.6792C95.6377 5.6855 96.5386 6.70183 96.4875 7.76157ZM96.1081 7.76857C96.1114 7.32303 95.9375 6.89445 95.6247 6.57712C95.312 6.25978 94.886 6.07967 94.4405 6.07643C93.9949 6.07318 93.5664 6.24705 93.249 6.55979C92.9317 6.87254 92.7516 7.29853 92.7483 7.74407C92.7467 7.96468 92.7886 8.18344 92.8715 8.38787C92.9544 8.5923 93.0768 8.77839 93.2317 8.93552C93.5444 9.25286 93.9704 9.43297 94.416 9.43621C94.8615 9.43946 95.2901 9.26559 95.6074 8.95285C95.7646 8.79799 95.8896 8.6137 95.9755 8.4105C96.0615 8.2073 96.1065 7.98917 96.1081 7.76857V7.76857Z" fill="#3A3A3A"/>
<path d="M95.4294 8.82443C95.2894 8.82443 95.1494 8.83213 95.0136 8.81953C94.9601 8.80502 94.9141 8.77075 94.8848 8.72364C94.7561 8.54375 94.6301 8.36106 94.5125 8.17417C94.3949 7.98728 94.243 7.90749 93.998 7.95509V8.81813H93.5654V6.72526C93.9966 6.72526 94.4264 6.70147 94.8519 6.73366C95.1452 6.75536 95.288 6.96605 95.302 7.26703C95.3159 7.39601 95.2838 7.52575 95.2113 7.63334C95.1388 7.74092 95.0306 7.81943 94.9058 7.85499C94.8729 7.86619 94.8393 7.87389 94.8358 7.87599C95.0458 8.17067 95.2558 8.47165 95.4658 8.77264L95.4294 8.82443ZM93.9945 7.57641C94.2178 7.57641 94.4243 7.58411 94.6308 7.57641C94.7841 7.56871 94.8526 7.46442 94.8491 7.31603C94.8511 7.28528 94.8466 7.25446 94.8361 7.22551C94.8256 7.19655 94.8092 7.17008 94.788 7.14774C94.7668 7.12541 94.7412 7.10769 94.7128 7.0957C94.6844 7.0837 94.6539 7.07769 94.6231 7.07804C94.4498 7.06499 94.2759 7.06171 94.1023 7.06824C94.0782 7.07424 94.0561 7.08634 94.0381 7.10339C94.0201 7.12043 94.0067 7.14184 93.9994 7.16554C93.9868 7.29923 93.9945 7.43782 93.9945 7.57641Z" fill="#3A3A3A"/>
</svg>

<svg width="97" height="30" fill="none" xmlns="http://www.w3.org/2000/svg"><path d="M41.991 21.447c-.1-.14-.176-.26-.26-.37-.59-.774-1.175-1.549-1.776-2.319-.916-1.165-1.839-2.325-2.398-3.72a8.491 8.491 0 0 1-.124-5.853 8.004 8.004 0 0 1 9.315-5.126c.126.029.186-.004.256-.102.843-1.16 1.688-2.32 2.536-3.476.035-.046.07-.09.107-.135l.037.02-1.996 3.95c.125.054.238.105.35.152A7.903 7.903 0 0 1 51.416 7.1a7.774 7.774 0 0 1 1.553 4.135c.118 1.528-.135 2.997-.818 4.382-.517 1.05-1.214 1.976-1.94 2.882-1.126 1.407-2.253 2.813-3.118 4.404a17.808 17.808 0 0 0-1.634 4.118c-.15.587-.271 1.18-.406 1.772a1.325 1.325 0 0 1-.07.254c-.438-2.369-1.182-4.62-2.45-6.73l-3.5 4.872-.035-.02 2.992-5.74.555.852 7.564-10.536h-6.194l3.75-7.42c-.25-.07-.469-.144-.693-.193-.043-.009-.119.06-.156.11-.427.577-.851 1.155-1.273 1.735l-2.9 3.968-1.885 2.585-.98 1.343c-.03.04-.05.087-.085.146h6.167l-3.869 7.428z" fill="#737373"/><path d="M56.545 21.124l.07-1.33a22353.048 22353.048 0 0 1 .535-9.092c.028-.49.052-.98.082-1.466a.53.53 0 0 1 .061-.15c.05.022.098.052.14.087.709.79 1.414 1.583 2.117 2.376.737.827 1.475 1.653 2.214 2.478.391.439.78.88 1.17 1.32.043.048.088.092.146.153.17-.19.334-.369.49-.55l4.356-4.97c.238-.272.475-.544.716-.814a.644.644 0 0 1 .122-.086.5.5 0 0 1 .063.147c.047.71.091 1.42.133 2.129a6074.636 6074.636 0 0 1 .553 9.616v.149h-3.112l-.28-5.017c-.152.17-.276.303-.394.44l-2.5 2.901c-.116.137-.165.131-.303-.024l-2.853-3.194c-.038-.041-.07-.09-.102-.135l-.038.025c-.093 1.666-.185 3.334-.275 5.006h-3.111zm-29.274 0h-3.18V9.285c.044-.004.089-.012.133-.012 1.545 0 3.09-.016 4.635.011 1.158.02 2.237.34 3.142 1.094 1.064.885 1.52 2.063 1.562 3.42a4.793 4.793 0 0 1-.49 2.335c-.468.935-1.2 1.589-2.157 1.999-.718.309-1.474.42-2.25.435-.396.006-.792 0-1.19 0h-.203l-.002 2.555zm.006-9.128v3.913c.6-.031 1.19-.017 1.77-.105.688-.104 1.123-.553 1.25-1.242.059-.333.072-.672.04-1.008-.093-.932-.602-1.457-1.53-1.55-.5-.05-1.01-.008-1.53-.008zM83.23 9.278c.041 0 .07-.005.098-.005 1.557 0 3.114-.014 4.67.012 1.07.018 2.074.305 2.948.949a4.087 4.087 0 0 1 1.575 2.364c.295 1.173.233 2.325-.276 3.43-.47 1.023-1.26 1.718-2.294 2.139-.69.28-1.413.386-2.152.397-.403.007-.805 0-1.208 0-.062 0-.124.006-.201.01v2.541h-3.16V9.278zm3.167 6.604c.615-.028 1.221.062 1.82-.078.685-.16 1.087-.594 1.223-1.28a3.01 3.01 0 0 0-.01-1.232c-.14-.655-.535-1.077-1.184-1.24-.607-.153-1.227-.06-1.85-.086v3.916zM5.933 11.95H1.609V9.273H10.78c.14-.007.167.057.103.17-.13.229-.261.455-.394.682l-2.761 4.741-2.014 3.458c-.017.03-.031.06-.062.119h4.772v2.68c-.06 0-.122.008-.183.008H.865c-.236 0-.252-.023-.13-.234.773-1.33 1.546-2.66 2.321-3.99l2.779-4.772c.028-.046.053-.097.098-.185zm17.05 9.182h-.689c-.8 0-1.598-.004-2.397.004a.243.243 0 0 1-.268-.179c-.1-.248-.213-.49-.333-.73a.21.21 0 0 0-.152-.1 635.732 635.732 0 0 0-4.234 0 .204.204 0 0 0-.148.104c-.12.258-.223.525-.344.784a.21.21 0 0 1-.14.111c-.986.007-1.971 0-2.957 0-.01 0-.02-.007-.048-.02.128-.272.254-.544.384-.815l2.267-4.726a3200.21 3200.21 0 0 0 2.971-6.23c.033-.074.07-.146.112-.216.036-.053.084-.117.14-.13.031-.007.099.07.125.12.151.302.295.608.44.91l1.455 3.062c.552 1.162 1.107 2.324 1.662 3.485l1.243 2.6c.283.594.566 1.189.847 1.783.016.054.032.103.064.183zm-7.159-3.402h2.373c-.402-.91-.795-1.794-1.204-2.718-.394.924-.777 1.814-1.169 2.718zm66.286 3.402h-.652c-.816 0-1.633 0-2.45.004a.222.222 0 0 1-.244-.162 11.028 11.028 0 0 0-.337-.748.21.21 0 0 0-.153-.099c-1.41-.005-2.821-.005-4.232 0a.224.224 0 0 0-.157.116c-.122.257-.225.524-.346.782a.21.21 0 0 1-.148.102c-.968.006-1.936.005-2.904 0a.745.745 0 0 1-.089-.013c.044-.1.079-.19.12-.28l2.022-4.221 2.154-4.488 1.433-2.993a.83.83 0 0 1 .124-.153c.052.048.12.088.15.148.412.854.819 1.712 1.227 2.568l2.258 4.729 2.146 4.51c.027.064.047.121.078.198zm-4.778-3.394l-1.207-2.724c-.401.932-.784 1.82-1.171 2.724h2.378zm19.156-9.976c.06 1.059-.88 2.086-2.063 2.08a2.081 2.081 0 1 1 0-4.163c1.213.006 2.114 1.023 2.063 2.083zm-.38.007a1.68 1.68 0 1 0-3.359-.025 1.68 1.68 0 0 0 3.36.025z" fill="#3A3A3A"/><path d="M95.43 8.824c-.14 0-.28.008-.416-.004a.22.22 0 0 1-.13-.096c-.128-.18-.254-.363-.371-.55-.118-.187-.27-.267-.515-.219v.863h-.433V6.725c.432 0 .861-.024 1.287.009.293.021.436.232.45.533a.55.55 0 0 1-.396.588c-.033.011-.067.019-.07.021.21.295.42.596.63.897l-.037.051zm-1.436-1.248c.224 0 .43.008.637 0 .153-.007.222-.112.218-.26a.223.223 0 0 0-.226-.238 4.622 4.622 0 0 0-.52-.01.144.144 0 0 0-.104.098c-.012.133-.004.272-.004.41z" fill="#3A3A3A"/></svg>
